Obsidian-SemiLight/actions/22s/format-text-lowercase.svg

<svg viewBox="0 0 22 22" xmlns="http://www.w3.org/2000/svg"><path d="m12 7v8 4h1v-1.361328a4 4 0 0 0 3 1.361328 4 4 0 0 0 4-4 4 4 0 0 0 -4-4 4 4 0 0 0 -3 1.361328v-5.361328zm-6 4a4 4 0 0 0 -4 4 4 4 0 0 0 4 4 4 4 0 0 0 3-1.361328v1.361328h1v-8h-1v1.361328a4 4 0 0 0 -3-1.361328zm0 1a3 3 0 0 1 3 3 3 3 0 0 1 -3 3 3 3 0 0 1 -3-3 3 3 0 0 1 3-3zm10 0a3 3 0 0 1 3 3 3 3 0 0 1 -3 3 3 3 0 0 1 -3-3 3 3 0 0 1 3-3z" fill="#4d4d4d"/><path d="m13 3 3 4 3-4z" fill="#3daee9"/></svg>

<svg xmlns="http://www.w3.org/2000/svg" viewBox="0 0 22 22">
  <defs id="defs3051">
    <style type="text/css" id="current-color-scheme">
      .ColorScheme-Text {
        color:#4d4d4d;
      }
      .ColorScheme-Highlight {
        color:#3daee9;
      }
      </style>
  </defs>
 <path 
     style="fill:currentColor;fill-opacity:1;stroke:none" 
     d="M 12 7 L 12 15 L 12 19 L 13 19 L 13 17.638672 A 4 4 0 0 0 16 19 A 4 4 0 0 0 20 15 A 4 4 0 0 0 16 11 A 4 4 0 0 0 13 12.361328 L 13 7 L 12 7 z M 6 11 A 4 4 0 0 0 2 15 A 4 4 0 0 0 6 19 A 4 4 0 0 0 9 17.638672 L 9 19 L 10 19 L 10 11 L 9 11 L 9 12.361328 A 4 4 0 0 0 6 11 z M 6 12 A 3 3 0 0 1 9 15 A 3 3 0 0 1 6 18 A 3 3 0 0 1 3 15 A 3 3 0 0 1 6 12 z M 16 12 A 3 3 0 0 1 19 15 A 3 3 0 0 1 16 18 A 3 3 0 0 1 13 15 A 3 3 0 0 1 16 12 z "
     class="ColorScheme-Text"
     />
 <path 
     style="fill:currentColor;fill-opacity:1;stroke:none" 
     d="M 13 3 L 16 7 L 19 3 L 13 3 z "
     class="ColorScheme-Highlight"
     />
</svg>
